;FLAVOR:Marlin
;TIME:9601.18
;Filament used:13.3541m
;Layer Height:0.2
;MINX:36.792
;MINY:16.061
;MINZ:0.2
;MAXX:165.737
;MAXY:207.086
;MAXZ:20
;OuterWall Time:1992.27
;InnerWall Time:1409.06
;Skin Time:3191.86
;Support Time:407.044
;SkirtBrim Time:143.017
;Infill Time:306.937
;Support Infills Time:0
;Combing Time:648.938
;Retraction Time:1311.7
;PrimeTower Time:190.35
;;;;;;;;;;;;;;;;;;;;;;;;;;;;;;;;;;;;;;;;;;;;;;;;;;;;;;;;;;;;;;;
;Creality Print GCode Generated by CXEngine
;CRSLICE_GIT_HASH:6b8d75d
;Creality Print Version : V4.3.7.6619
;CXEngine Release Time:2023-09-20 15:19:09
;Gcode Generated Time:2025-01-16 12:42:16
;----------Machine Config--------------
;Machine Name:Ender-3 V3 SE
;Machine Height:250
;Machine Width:220
;Machine Depth:220
;Material Type:PLA
;Material Name:CR-PLA_1.75
;Number of Extruders:1
;ExtruderParams[0] Nozzle Diameter:1000
;----------Profile Config---------------
;Wall Thickness:0.8
;Top/Bottom Thickness:0.8
;Out Wall Line Width:0.42
;Inner Wall Line Width:0.45
;Inital Height:200
;Wall Line Count:2
;Infill Line Distance:8
;Infill Pattern:grid
;Infill Sparse Density:10
;Infill Wipe Distance:0
;Print Temperature:205
;Bed Temperature:60
;Support Enable:true
;Support Density:15
;Support Angle:60
;Adhesion Type:autobrim
;machine is belt:false
;machine belt offset:10
;machine belt offset Y:0
;Raft Base Line Spacing:1.6
;Wait Heatup Sync:true
;Enable Ironing:false
;Material Type:PLA
;Max volumetric speed:20
;Material Diameter:1.75
;Material Density:1.24
;Filament Cost:0.3
;Filament Weight:0
;Preview Img Type:png
;Screen Size:Sermoon D3
;----------Shell Config----------------
;Outer Wall Wipe Distance:200
;Outer Inset First:false
;Infill Before Walls:false
;Infill Overlap:0.04
;Fill Gaps Between Walls:everywhere
;Minimum Infill Area:15
;Top Surface Skin Layer:0
;Top Layers:4
;Z Seam Alignment:sharpest_corner
;Seam Corner Preference:z_seam_corner_inner
;Z Seam X:110
;Z Seam Y:220
;Horizontal Expansion:0
;Top/Bottom Pattern:zigzag
;Ironing Pattern:zigzag
;Vase Model:false
;----------Support Config----------------
;Support Type:everywhere
;Support Pattern:grid
;Support Infill Layer Thickness:0.15
;Minimum Support Area:1
;Enable Support Roof:true
;Support Roof Thickness:0.8
;Support Roof Pattern:lines
;Connect Support Lines:0
;Connect Support ZigZags:1
;Minimum Support X/Y Distance:0.2
;Support Line Distance:5.6
; ---------PrintSpeed & Travel----------
;Enable Print Cool:true
;Avoid Printed Parts Traveling:true
;Enable Retraction:true
;Retraction Distance:0.8
;Retraction Speed:40
;Retraction Prime Speed:40
;Maximum Retraction Count:100
;Minimum Extrusion Distance Window:0.8
;Z Hop When Retracted:false
;Z Hop Height:0.2
;Retract Before Outer Wall:true

;Outer Wall Speed:60
;Inner Wall Speed:90
;Infill Speed:180
;Top/Bottom Speed:50
;Travel Speed:150
;Initial Layer Speed:30
;Skirt/Brim Speed:25
;Prime Tower Speed:60
;Outer Wall Acceleration:1000
;Inner Wall Acceleration:2000
;Infill Acceleration:2500
;Top/Bottom Acceleration:2500
;Travel Acceleration:2500
;Initial Layer Print Acceleration:500
;Initial Layer Travel Acceleration:500
;Skirt/Brim Acceleration:500
;Combing Mode:noskin
; --------SpecialModel&Mesh Fixes--------
;Union Overlapping Volum:true
;Remove All Holes:false
;Maximum Travel Resolution:0.25
;Maximum Deviation:0.05
;Maximum Model Angle:0.872665
;IS Mold Print:false
;Make Overhang Printable:false
;Enable Coasting:false
;Coasting Volumes:0.064
;Coasting Speed:0.9
;Raft AirGap:0.25
;Layer0 ZOverLap:0.13
;Adaptive Layers:0
;---------------------End of Head--------------------------
M140 S60
M105
M190 S60
M104 S205
M82 ;absolute extrusion mode
M220 S100 ;Reset Feedrate
M221 S100 ;Reset Flowrate

G28 ;Home

G92 E0 ;Reset Extruder
G1 Z2.0 F3000 ;Move Z Axis up
G1 X10.1 Y20 Z0.28 F5000.0 ;Move to start position
M109 S205.000000
G1 X10.1 Y145.0 Z0.28 F1500.0 E15 ;Draw the first line
G1 X10.4 Y145.0 Z0.28 F5000.0 ;Move to side a little
G1 X10.4 Y20 Z0.28 F1500.0 E30 ;Draw the second line
G92 E0  ;Reset Extruder
G1 E-1.0000 F1800 ;Retract a bit
G1 Z2.0 F3000 ;Move Z Axis up
G1 E0.0000 F1800 

G92 E0
G92 E0
G1 F2400 E-0.8
;LAYER_COUNT:100

;LAYER:0
M106 S0
M204 S500
G0 F4800 X50.988 Y18.043 Z0.2
;TYPE:SKIRT
G1 F2400 E0
G1 F1500 X50.988 Y38.665 E0.7922
G1 X48.394 Y38.665 E0.89185
G1 X48.23 Y38.799 E0.89999
G1 X48.231 Y61.317 E1.76503
G1 X48.277 Y61.739 E1.78134
G1 X48.408 Y62.346 E1.80519
G1 X48.613 Y62.872 E1.82688
G1 X48.82 Y63.264 E1.84391
G1 X49.093 Y63.672 E1.86277
G1 X49.471 Y64.108 E1.88493
G1 X50.232 Y64.757 E1.92335
G1 X51.207 Y65.146 E1.96368
G1 X51.883 Y65.296 E1.99028
G1 X52.411 Y65.327 E2.0106
G1 X64.728 Y65.327 E2.48376
G1 X64.892 Y65.193 E2.4919
G1 X64.892 Y62.569 E2.5927
G1 X85.988 Y62.569 E3.40311
G1 X85.988 Y65.163 E3.50276
G1 X86.122 Y65.327 E3.5109
G1 X98.637 Y65.326 E3.99167
G1 X99.088 Y65.275 E4.0091
G1 X99.678 Y65.147 E4.0323
G1 X100.219 Y64.932 E4.05466
G1 X100.601 Y64.729 E4.07128
G1 X101.016 Y64.446 E4.09057
G1 X101.313 Y64.196 E4.10549
G1 X101.736 Y63.744 E4.12927
G1 X102.036 Y63.301 E4.14982
G1 X102.268 Y62.871 E4.16859
G1 X102.467 Y62.371 E4.18926
G1 X102.594 Y61.798 E4.21181
G1 X102.644 Y61.325 E4.23008
G1 X102.648 Y38.829 E5.09428
G1 X102.514 Y38.665 E5.10241
G1 X99.892 Y38.665 E5.20314
G1 X99.892 Y18.074 E5.99415
G1 X99.758 Y17.91 E6.00229
G1 X96.192 Y17.913 E6.13928
G1 X95.808 Y17.954 E6.15411
G1 X95.216 Y18.081 E6.17737
G1 X94.675 Y18.294 E6.19971
G1 X94.278 Y18.506 E6.217
G1 X93.783 Y18.844 E6.24002
G1 X93.386 Y19.216 E6.26092
G1 X92.789 Y19.918 E6.29632
G1 X92.426 Y20.824 E6.33382
G1 X92.259 Y21.57 E6.36318
G1 X92.23 Y22.066 E6.38227
G1 X92.23 Y54.747 E7.63773
G1 X92.07 Y54.907 E7.64642
G1 X58.81 Y54.907 E8.92412
G1 X58.65 Y54.747 E8.93281
G1 X58.644 Y21.897 E10.19476
G1 X58.593 Y21.431 E10.21276
G1 X58.462 Y20.855 E10.23546
G1 X58.262 Y20.355 E10.25614
G1 X58.052 Y19.954 E10.27353
G1 X57.8 Y19.584 E10.29073
G1 X57.479 Y19.201 E10.30993
G1 X57.105 Y18.846 E10.32974
G1 X56.442 Y18.395 E10.36054
G1 X55.676 Y18.084 E10.3923
G1 X55.139 Y17.968 E10.41341
G1 X54.657 Y17.913 E10.43204
G1 X51.152 Y17.909 E10.56669
G1 X50.988 Y18.043 E10.57482
G0 F4800 X49.76 Y17.444
G1 F1500 X49.949 Y17.139 E10.58861
G1 X50.201 Y16.883 E10.60241
G1 X50.504 Y16.69 E10.61621
G1 X50.842 Y16.568 E10.63001
G1 X51.22 Y16.523 E10.64464
G1 X54.727 Y16.526 E10.77936
G1 X55.374 Y16.6 E10.80438
G1 X55.971 Y16.73 E10.82785
G1 X56.232 Y16.811 E10.83835
G1 X56.918 Y17.088 E10.86677
G1 X57.217 Y17.246 E10.87976
G1 X57.85 Y17.673 E10.90909
G1 X58.059 Y17.841 E10.91939
G1 X58.5 Y18.26 E10.94276
G1 X58.898 Y18.735 E10.96656
G1 X59.235 Y19.226 E10.98944
G1 X59.517 Y19.76 E11.01264
G1 X59.749 Y20.34 E11.03664
G1 X59.826 Y20.589 E11.04665
G1 X59.96 Y21.189 E11.07027
G1 X60.031 Y21.837 E11.09531
G1 X60.036 Y53.521 E12.31247
G1 X90.844 Y53.521 E13.49597
G1 X90.844 Y22.079 E14.70383
G1 X90.876 Y21.489 E14.72653
G1 X90.912 Y21.231 E14.73653
G1 X91.062 Y20.558 E14.76302
G1 X91.139 Y20.309 E14.77303
G1 X91.488 Y19.438 E14.80908
G1 X91.756 Y18.993 E14.82903
G1 X92.373 Y18.266 E14.86567
G1 X92.835 Y17.833 E14.88999
G1 X93.032 Y17.675 E14.89969
G1 X93.543 Y17.328 E14.92342
G1 X94.106 Y17.027 E14.94794
G1 X94.668 Y16.804 E14.97117
G1 X94.923 Y16.727 E14.9814
G1 X95.581 Y16.585 E15.00726
G1 X96.129 Y16.526 E15.02844
G1 X99.66 Y16.524 E15.16408
G1 X100.017 Y16.564 E15.17788
G1 X100.356 Y16.681 E15.19166
G1 X100.661 Y16.871 E15.20546
G1 X100.917 Y17.123 E15.21926
G1 X101.111 Y17.425 E15.23305
G1 X101.233 Y17.763 E15.24686
G1 X101.278 Y18.139 E15.2614
G1 X101.74 Y18.139 E15.27915
G1 X101.7 Y17.733 E15.29482
G1 X101.581 Y17.343 E15.31049
G1 X101.388 Y16.984 E15.32614
G1 X101.13 Y16.669 E15.34179
G1 X100.814 Y16.411 E15.35746
G1 X100.455 Y16.22 E15.37308
G1 X100.065 Y16.102 E15.38873
G1 X99.66 Y16.062 E15.40437
G1 X96.108 Y16.064 E15.54082
G1 X95.499 Y16.129 E15.56435
G1 X94.825 Y16.275 E15.59084
G1 X94.498 Y16.375 E15.60397
G1 X93.906 Y16.61 E15.62844
G1 X93.309 Y16.929 E15.65445
G1 X92.773 Y17.293 E15.67934
G1 X92.519 Y17.496 E15.69183
G1 X92.039 Y17.946 E15.7171
G1 X91.404 Y18.694 E15.75479
G1 X91.247 Y18.904 E15.76487
G1 X91.059 Y19.266 E15.78054
G1 X90.71 Y20.137 E15.81658
G1 X90.611 Y20.458 E15.82949
G1 X90.461 Y21.131 E15.85598
G1 X90.415 Y21.462 E15.86881
G1 X90.382 Y22.079 E15.89255
G1 X90.382 Y53.059 E17.08266
G1 X60.498 Y53.059 E18.23067
G1 X60.493 Y21.805 E19.4313
G1 X60.418 Y21.118 E19.45785
G1 X60.277 Y20.488 E19.48265
G1 X60.178 Y20.169 E19.49548
G1 X59.936 Y19.563 E19.52055
G1 X59.633 Y18.989 E19.54549
G1 X59.269 Y18.458 E19.57022
G1 X58.833 Y17.939 E19.59626
G1 X58.377 Y17.506 E19.62041
G1 X58.109 Y17.29 E19.63364
G1 X57.476 Y16.863 E19.66297
G1 X57.091 Y16.659 E19.67971
G1 X56.405 Y16.382 E19.70813
G1 X56.07 Y16.279 E19.72159
G1 X55.446 Y16.143 E19.74612
G1 X54.754 Y16.064 E19.77288
G1 X51.221 Y16.061 E19.9086
G1 X50.812 Y16.101 E19.92439
G1 X50.422 Y16.22 E19.94005
G1 X50.063 Y16.412 E19.95569
G1 X49.748 Y16.671 E19.97136
G1 X49.49 Y16.986 E19.987
G1 X49.298 Y17.345 E20.00264
G1 X49.18 Y17.735 E20.01829
G1 X49.14 Y18.139 E20.03389
G1 X49.602 Y18.139 E20.05164
G1 X49.642 Y17.783 E20.0654
G1 X49.76 Y17.444 E20.07919
G0 F4800 X51.219 Y18.14
G1 F1500 X51.219 Y38.896 E20.87654
G1 X48.461 Y38.896 E20.98249
G1 X48.461 Y61.292 E21.84284
G1 X48.507 Y61.714 E21.85915
G1 X48.634 Y62.297 E21.88207
G1 X48.828 Y62.787 E21.90231
G1 X49.024 Y63.156 E21.91837
G1 X49.268 Y63.521 E21.93523
G1 X49.621 Y63.932 E21.95604
G1 X50.355 Y64.558 E21.9931
G1 X51.258 Y64.921 E22.03049
G1 X51.897 Y65.065 E22.05565
G1 X52.425 Y65.096 E22.07597
G1 X64.661 Y65.096 E22.54602
G1 X64.661 Y62.338 E22.65197
G1 X86.219 Y62.338 E23.48013
G1 X86.219 Y65.096 E23.58608
G1 X98.611 Y65.096 E24.06213
G1 X99.062 Y65.045 E24.07956
G1 X99.629 Y64.921 E24.10186
G1 X100.111 Y64.728 E24.12181
G1 X100.471 Y64.538 E24.13744
G1 X100.867 Y64.269 E24.15583
G1 X101.164 Y64.019 E24.17075
G1 X101.545 Y63.614 E24.19211
G1 X101.845 Y63.171 E24.21266
G1 X102.053 Y62.786 E24.22947
G1 X102.252 Y62.286 E24.25014
G1 X102.368 Y61.749 E24.27125
G1 X102.414 Y61.301 E24.28855
G1 X102.417 Y38.896 E25.14925
G1 X99.661 Y38.896 E25.25512
G1 X99.661 Y18.141 E26.05243
G1 X96.217 Y18.143 E26.18474
G1 X95.833 Y18.184 E26.19957
G1 X95.265 Y18.307 E26.2219
G1 X94.784 Y18.498 E26.24178
G1 X94.387 Y18.71 E26.25907
G1 X93.941 Y19.013 E26.27978
G1 X93.544 Y19.385 E26.30068
G1 X92.989 Y20.039 E26.33363
G1 X92.64 Y20.91 E26.36968
G1 X92.49 Y21.583 E26.39617
G1 X92.461 Y22.079 E26.41525
G1 X92.461 Y54.842 E27.67386
G1 X92.165 Y55.138 E27.68994
G1 X58.715 Y55.138 E28.97494
G1 X58.419 Y54.842 E28.99102
G1 X58.414 Y21.922 E30.25565
G1 X58.363 Y21.456 E30.27366
G1 X58.248 Y20.941 E30.29393
G1 X58.048 Y20.441 E30.31462
G1 X57.848 Y20.062 E30.33108
G1 X57.61 Y19.715 E30.34725
G1 X57.32 Y19.369 E30.36459
G1 X56.946 Y19.014 E30.3844
G1 X56.313 Y18.587 E30.41373
G1 X55.627 Y18.31 E30.44215
G1 X55.113 Y18.198 E30.46236
G1 X54.631 Y18.143 E30.481
G1 X51.219 Y18.14 E30.61207
;;retract;;
G1 F2400 E30.05207
G1 X50.956 Y20.122 E29.82407
G1 F2400 E29.81207
G0 F4800 X51.219 Y18.14
G0 X105.219 Y24.138
G1 F2400 E30.61207
G1 F1500 X105.219 Y32.096 E30.91778
G1 X107.661 Y32.096 E31.01159
G1 X107.661 Y24.138 E31.3173
G1 X105.219 Y24.138 E31.41111
;;retract;;
G1 F2400 E30.85111
G1 X105.805 Y26.05 E30.62311
G1 F2400 E30.61111
G0 F4800 X105.219 Y24.138
G0 X45.661 Y24.138
G1 F2400 E31.41111
G1 F1500 X43.219 Y24.138 E31.50492
G1 X43.219 Y32.096 E31.81063
G1 X45.661 Y32.096 E31.90444
G1 X45.661 Y24.138 E32.21016
;;retract;;
G1 F2400 E31.65016
G1 X45.075 Y26.05 E31.42216
G1 F2400 E31.41016
G0 F4800 X45.661 Y24.138
G0 X143.602 Y98.933
G1 F2400 E32.21016
G1 F1500 X143.41 Y99.292 E32.22579
G1 X143.292 Y99.682 E32.24145
G1 X143.24 Y100.211 E32.26187
G1 X143.292 Y100.743 E32.2824
G1 X143.411 Y101.133 E32.29807
G1 X143.603 Y101.492 E32.31371
G1 X143.861 Y101.806 E32.32932
G1 X144.176 Y102.065 E32.34498
G1 X144.536 Y102.257 E32.36066
G1 X144.925 Y102.375 E32.37627
G1 X145.331 Y102.415 E32.39195
G1 X145.331 Y101.953 E32.40969
G1 X144.974 Y101.913 E32.42349
G1 X144.635 Y101.795 E32.43728
G1 X144.33 Y101.606 E32.45107
G1 X144.074 Y101.353 E32.46489
G1 X143.881 Y101.051 E32.47866
G1 X143.759 Y100.713 E32.49247
G1 X143.7 Y100.215 E32.51173
G1 X143.754 Y99.73 E32.53048
G1 X143.872 Y99.391 E32.54427
G1 X144.061 Y99.086 E32.55805
G1 X144.313 Y98.83 E32.57185
G1 X144.616 Y98.637 E32.58565
G1 X144.954 Y98.515 E32.59945
G1 X145.331 Y98.47 E32.61404
G1 X152.223 Y98.47 E32.8788
G1 X152.58 Y98.51 E32.8926
G1 X152.919 Y98.628 E32.90639
G1 X153.224 Y98.817 E32.92017
G1 X153.48 Y99.069 E32.93397
G1 X153.673 Y99.372 E32.94777
G1 X153.795 Y99.71 E32.96158
G1 X153.84 Y100.087 E32.97616
G1 X153.839 Y175.912 E35.88901
G1 X153.799 Y176.269 E35.90281
G1 X153.681 Y176.608 E35.9166
G1 X153.492 Y176.913 E35.93039
G1 X153.24 Y177.169 E35.94419
G1 X152.937 Y177.362 E35.95799
G1 X152.599 Y177.484 E35.97179
G1 X152.222 Y177.529 E35.98638
G1 X145.331 Y177.529 E36.2511
G1 X144.974 Y177.489 E36.2649
G1 X144.635 Y177.371 E36.27869
G1 X144.33 Y177.182 E36.29247
G1 X144.074 Y176.93 E36.30627
G1 X143.881 Y176.627 E36.32007
G1 X143.759 Y176.289 E36.33388
G1 X143.7 Y175.791 E36.35314
G1 X143.754 Y175.306 E36.37189
G1 X143.872 Y174.967 E36.38568
G1 X144.061 Y174.662 E36.39946
G1 X144.313 Y174.406 E36.41326
G1 X144.616 Y174.213 E36.42706
G1 X144.954 Y174.091 E36.44087
G1 X145.331 Y174.046 E36.45545
G1 X145.331 Y173.584 E36.4732
G1 X144.924 Y173.624 E36.48891
G1 X144.534 Y173.743 E36.50457
G1 X144.175 Y173.935 E36.52021
G1 X143.86 Y174.194 E36.53588
G1 X143.602 Y174.509 E36.55152
G1 X143.41 Y174.868 E36.56716
G1 X143.292 Y175.258 E36.58281
G1 X143.24 Y175.787 E36.60323
G1 X143.292 Y176.319 E36.62377
G1 X143.411 Y176.709 E36.63943
G1 X143.603 Y177.068 E36.65507
G1 X143.862 Y177.383 E36.67074
G1 X144.177 Y177.641 E36.68638
G1 X144.536 Y177.833 E36.70202
G1 X144.926 Y177.951 E36.71767
G1 X145.331 Y177.991 E36.73331
G1 X152.222 Y177.991 E36.99803
G1 X152.629 Y177.951 E37.01374
G1 X153.019 Y177.832 E37.0294
G1 X153.378 Y177.64 E37.04504
G1 X153.693 Y177.381 E37.06071
G1 X153.951 Y177.066 E37.07635
G1 X154.143 Y176.707 E37.09199
G1 X154.261 Y176.317 E37.10764
G1 X154.301 Y175.912 E37.12327
G1 X154.302 Y100.087 E40.03613
G1 X154.262 Y99.68 E40.05184
G1 X154.143 Y99.29 E40.0675
G1 X153.951 Y98.931 E40.08314
G1 X153.692 Y98.616 E40.09881
G1 X153.377 Y98.358 E40.11445
G1 X153.018 Y98.166 E40.13009
G1 X152.628 Y98.048 E40.14574
G1 X152.223 Y98.008 E40.16137
G1 X145.331 Y98.008 E40.42613
G1 X144.924 Y98.048 E40.44184
G1 X144.534 Y98.167 E40.45751
G1 X144.175 Y98.359 E40.47315
G1 X143.86 Y98.618 E40.48881
G1 X143.602 Y98.933 E40.50446
G0 F4800 X144.333 Y99.506
G1 F1500 X144.216 Y99.786 E40.51611
G1 X144.16 Y100.209 E40.5325
G1 X144.213 Y100.626 E40.54865
G1 X144.327 Y100.907 E40.5603
G1 X144.51 Y101.149 E40.57196
G1 X144.75 Y101.334 E40.5836
G1 X145.03 Y101.451 E40.59526
G1 X145.331 Y101.491 E40.60692
G1 X145.331 Y101.136 E40.62056
G1 X151.173 Y101.137 E40.84498
G1 X151.172 Y174.862 E43.67716
G1 X145.331 Y174.863 E43.90155
G1 X145.331 Y174.508 E43.91518
G1 X145.041 Y174.545 E43.92641
G1 X144.76 Y174.659 E43.93806
G1 X144.518 Y174.842 E43.94972
G1 X144.333 Y175.082 E43.96136
G1 X144.216 Y175.362 E43.97302
G1 X144.16 Y175.785 E43.98941
G1 X144.213 Y176.202 E44.00556
G1 X144.327 Y176.483 E44.01721
G1 X144.51 Y176.725 E44.02886
G1 X144.75 Y176.91 E44.0405
G1 X145.03 Y177.027 E44.05216
G1 X145.331 Y177.067 E44.06382
G1 X152.222 Y177.067 E44.32854
G1 X152.512 Y177.03 E44.33978
G1 X152.793 Y176.916 E44.35142
G1 X153.035 Y176.733 E44.36308
G1 X153.22 Y176.493 E44.37472
G1 X153.337 Y176.213 E44.38638
G1 X153.377 Y175.912 E44.39804
G1 X153.378 Y100.087 E47.3109
G1 X153.341 Y99.797 E47.32213
G1 X153.227 Y99.516 E47.33378
G1 X153.044 Y99.274 E47.34543
G1 X152.804 Y99.089 E47.35707
G1 X152.524 Y98.972 E47.36873
G1 X152.223 Y98.932 E47.38039
G1 X145.331 Y98.932 E47.64515
G1 X145.041 Y98.969 E47.65638
G1 X144.76 Y99.083 E47.66803
G1 X144.518 Y99.266 E47.67969
G1 X144.333 Y99.506 E47.69133
G0 F4800 X144.852 Y99.543
G1 F1500 X144.632 Y99.938 E47.7087
